X:1
T:Title
%%score { 1 | 2 }
L:1/8
Q:1/4=92
M:6/8
K:A
V:1 treble nm="Grand Piano"
V:2 bass 
V:1
 EAc cBA | F2 A E3 | [Ec][Ec][Ec] [Ec][Fd][Ec] | c3 B3 | EAc cBA | F2 A E3 | %6
w: J.~H.~Tenney * * * * *||||||
 [Ec][Ec][Ec] [Ec][Fd][Ec] | [DB]3 [CA]3 | cAc [Ge]3 | AFA [^Ec]3 | [FB][Fc][FB] [FA][EG][DF] | %11
w: |||||
 [CE]3 [CA]3 | BBB d2 d |[M:15/16] cc/-c/ce3/2- e3 |[M:3/4] [Ec][Ec] [Ec][Ec] [Fd][Ec] | %15
w: ||||
 [DB]3 [CA]3 |] %16
w: |
V:2
 z6 | z6 | [A,,A,][A,,A,][A,,A,] [A,,A,][A,,A,][A,,A,] | [E,A,E]3 [E,G,E]3 | z6 | z6 | %6
 [A,,A,][A,,A,][A,,A,] [A,,A,][A,,A,][A,,A,] | [E,G,]3 [A,,A,]3 | %8
 [A,E][A,CE][A,A][K:bass] [E,B,]3 | [F,A,F][F,C][F,A,F] [C,G,]3 | %10
 [D,F,][D,F,][D,F,] [D,A,][D,A,][D,A,] | [A,,A,]3 [A,,A,]3 | %12
 [E,G,E][E,G,E][E,G,E] [E,B,E]2 [E,B,E] |[M:15/16] [A,E][A,E]/-[A,E]/[A,E][A,CE]3/2- [A,CE]3 | %14
[M:3/4] [A,,A,][A,,A,] [A,,A,][A,,A,] [A,,A,][A,,A,] | [E,G,]3 [A,,A,]3 |] %16

